public/images/broadcasters/dr.svg

<svg clip-rule="evenodd" fill-rule="evenodd" stroke-linejoin="round" stroke-miterlimit="2" viewBox="0 0 134 40" xmlns="http://www.w3.org/2000/svg"><path d="m0 40v-40h133.322v40zm53.208-30.22h-28.532c-.253 0-.379.151-.379.379v19.216c0 .228.126.38.379.38h28.532c8.381 0 12.609-2.785 12.609-10.05 0-7.216-4.228-9.925-12.609-9.925zm-7.388 16.304h-8.938c-.254 0-.304-.102-.304-.304v-12.027c0-.2.05-.302.304-.302h8.938c5.315 0 7.442 1.517 7.442 6.303s-2.127 6.33-7.442 6.33zm65.01 2.86-8.253-5.822c-.203-.153-.329-.228-.329-.33 0-.1.076-.152.254-.152 4.176 0 7.417-1.948 7.417-6.252 0-4.278-2.785-6.609-7.924-6.609h-31.267c-.253 0-.38.152-.38.379v19.216c0 .229.127.381.38.381h11.506c.253 0 .38-.152.38-.381v-4.556c0-.228.075-.303.303-.303h6.621c.33 0 .456.025.683.202l5.749 4.759c.279.228.481.279.809.279h14.305c.203 0 .304-.077.304-.229 0-.202-.354-.43-.558-.582zm-17.921-8h-9.975c-.229 0-.304-.077-.304-.303v-6.887c0-.227.075-.304.304-.304h9.975c3.342 0 4.76.912 4.76 3.671 0 2.785-1.418 3.823-4.76 3.823z" fill="#fff"/></svg>

<?xml version="1.0" encoding="UTF-8" standalone="no"?>
<!DOCTYPE svg PUBLIC "-//W3C//DTD SVG 1.1//EN" "http://www.w3.org/Graphics/SVG/1.1/DTD/svg11.dtd">
<svg width="100%" height="100%" viewBox="0 0 134 40" version="1.1" xmlns="http://www.w3.org/2000/svg" xmlns:xlink="http://www.w3.org/1999/xlink" xml:space="preserve" xmlns:serif="http://www.serif.com/" style="fill-rule:evenodd;clip-rule:evenodd;stroke-linejoin:round;stroke-miterlimit:2;">
    <g id="Logos-DR" serif:id="Logos/DR">
        <g id="dr">
            <path id="Fill-1" d="M0,40L0,0L133.322,0L133.322,40L0,40ZM53.208,9.78L24.676,9.78C24.423,9.78 24.297,9.931 24.297,10.159L24.297,29.375C24.297,29.603 24.423,29.755 24.676,29.755L53.208,29.755C61.589,29.755 65.817,26.97 65.817,19.705C65.817,12.489 61.589,9.78 53.208,9.78ZM45.82,26.084L36.882,26.084C36.628,26.084 36.578,25.982 36.578,25.78L36.578,13.753C36.578,13.553 36.628,13.451 36.882,13.451L45.82,13.451C51.135,13.451 53.262,14.968 53.262,19.754C53.262,24.54 51.135,26.084 45.82,26.084ZM110.83,28.944L102.577,23.122C102.374,22.969 102.248,22.894 102.248,22.792C102.248,22.692 102.324,22.64 102.502,22.64C106.678,22.64 109.919,20.692 109.919,16.388C109.919,12.11 107.134,9.779 101.995,9.779L70.728,9.779C70.475,9.779 70.348,9.931 70.348,10.158L70.348,29.374C70.348,29.603 70.475,29.755 70.728,29.755L82.234,29.755C82.487,29.755 82.614,29.603 82.614,29.374L82.614,24.818C82.614,24.59 82.689,24.515 82.917,24.515L89.538,24.515C89.868,24.515 89.994,24.54 90.221,24.717L95.97,29.476C96.249,29.704 96.451,29.755 96.779,29.755L111.084,29.755C111.287,29.755 111.388,29.678 111.388,29.526C111.388,29.324 111.034,29.096 110.83,28.944ZM92.909,20.944L82.934,20.944C82.705,20.944 82.63,20.867 82.63,20.641L82.63,13.754C82.63,13.527 82.705,13.45 82.934,13.45L92.909,13.45C96.251,13.45 97.669,14.362 97.669,17.121C97.669,19.906 96.251,20.944 92.909,20.944Z" style="fill:white;"/>
            <g id="Group-6">
            </g>
        </g>
    </g>
</svg>
